X:1
T:Sancta Maria, libera nos
T:Sancta Maria, libera nos
T:Francesco della Porta
C:Francesco della Porta
%%score [ 1 2 3 4 ]
L:1/8
Q:1/4=120
M:2/2
K:C
V:1 treble nm="Soprano 1" snm="S 1"
V:2 treble nm="Soprano 2" snm="S 2"
V:3 treble nm="Soprano 3" snm="S 3"
V:4 treble nm="Soprano 4" snm="S 4"
V:1
 d8 | B4 d4 | G4 ^F4 | G6 A2 | B4 A2 d2- | d2 c2 B2 A2 |: %6
"^----------nos          sem-                              per                       suc-       cur-       re          nos-----------" G4 D4 | %7
 G2 A2 B2 c2 | d4 d4 | z4 G4 | G4 ^F4 | B2 c2 d4- | %12
"^------------------------                                                  San-                   cta         Ma-       ri-         a" d2 c2 B2 A2 | %13
 G4 z4 | z8 | d8 | B4 d4 | G4 ^F4 | %18
"^li-                   be-    ra------------------------------------------          ra--------------------------" G6 A2 | %19
 B4 A2 d2- |1 d2 c2 B2 A2 :|2 B8- || B8 |] %23
V:2
"^San-                cta       Ma-      ri-       a            li-             be-  ra------------------------------""^San-                cta       Ma-      ri-       a            li-             be-" z8 | %1
 z8 | d8 | B4 d4 | G4 ^F4 | G6 A2 |: %6
"^ra-----------------------------------------------nos         sem------------------------per                     suc-" B4 A2 d2- | %7
 d2 c2 B2 A2 | G4 D4 | G2 A2 B2 c2 | d4 d4 | z4 G4 | %12
"^cur-      re           nos----------------------------------------                                                 San-" G4 ^F4 | %13
 B2 c2 d4- | d2 c2 B2 A2 | G4 z4 | z8 | d8 | %18
"^cta           Ma-           ri-           a                li-                   be-        ri-                            a." B4 d4 | %19
 G4 ^F4 |1 G6 A2 :|2 G8 || G8 |] %23
V:3
 z8 | z8 | z8 |"^San-                cta       Ma-" z8 | d8 | B4 d4 |: %6
"^ri-        ri-            a                li-    be-        ra--------------------------------        nos        sem-" G4 ^F4 | %7
 G6 A2 | B4 A2 (d2 | d2) c2 B2 A2 | G4 D4 | G2 A2 B2 c2 | %12
"^per                      suc-        cur-      re           nos--------------------------------------" d4 d4 | %13
 z4 G4 | G4 ^F4 | B2 c2 d4- | d2 c2 B2 A2 | G4 z4 | %18
"^San-                         cta            Ma-             San-                         cta." z8 | %19
 d8 |1 B4 d4 :|2 d8 || d8 |] %23
V:4
 z8 | z8 | z8 | z8 | z8 | z8 |: %6
"^San-                    ta          Ma-        ri-        a             li-               be-   ra-" d8 | %7
 B4 d4 | G4 ^F4 | G6 A2 | B4 A2 d2- | d2 c2 B2 A2 | G4 D4 | G2 A2 B2 c2 | d4 d4 | z4 G4 | G4 ^F4 | %17
 B2 c2 d4- | d2 c2 B2 A2 | G4 z4 |1 z8 :|2 G8 || G8 |] %23

